X:1
T:029 - Nasce Jesus
T:Letra: Manuel Avelino de Souza (1886-1962)
T:Música: William James Kirkpatrick (1838-1921)
M:4/4
L:1/4
K:Db
V:1
A/G/ | "Db"FAdF | "Ebm"AG2G/F/ | "Ab7"EGcB |  "Db"BA2A/G/ | FAdf | "Gb"eB2 d3//d// | "Eb7"c/e/ e/e/ e/d/ c/B/ | "Ab7"A3 || A3//B// | "Db"A/d/ d3//d// d/A/ =G/A/ | "Gb"B3 B3//B// | "Eb7"B/e/ e3//e// e/B/ c/d/ | "Ab7"c3A | "Db"A/d/ d3//d// d>d | "Gb"e/d/ d3//B// d>B | "Ab"B/A/ =G/A/ "Ab7"c/c/ B/A/ | "Db"d3 |]
w: 1.~O_ po-vo, sim, co-ber-to De_ den-sas tre-vas, per-to Do a-bis-moe não des-per-to, Vê, sur-pre-so,um gran-dee di-vi-nal cla-rão! É Je-sus que nas-ce,Au-tor da sal-va-ção! Cris-toa-ma-doa to-dos traz a re-den-ção! O co-roan-ge-li-cal, num hi-no tri-un-fal, Pro-cla-mao Cris-to, com a-do-ra-ção!
w: 2.~Cum_prin-doas pro-fe-ci-as Nos_ nas-ceo Rei Mes-si-as; Em_ ho-ras tão som-bri-as Ca-da po-voem tre-vas vê o seu cla-rão!
w: 3.~Je_ sus, o Rei da gló-ria, Hu_mil-deem su-ahis-tó-ria, A_ to-dos dá vi-tó-ria; Vin-de ver o Cris-toem su-ahu-mi-lha-ção!
w: 4.~Ó_ no-vaa-le-gree bo-a! No_ céu a-zul res-so-a Que_ Cris-to nos per-do-a. A-cei-tai-o,ó po-vos; dai-Lheo co-ra-ção!
W:
W: 1. O povo, sim, coberto
W: De densas trevas, perto
W: Do abismo e não desperto,
W: Vê, surpreso, um grande e 
W: divinal clarão!
W: 
W: 2. Cumprindo as profecias
W: Nos nasce o Rei Messias;
W: Em horas tão sombrias
W: Cada povo em trevas 
W: vê o seu clarão!
W: 
W: 
W: 3. Jesus, o Rei da glória,
W: Humilde em sua história,
W: A todos dá vitória;
W: Vinde ver o Cristo em 
W: sua humilhação!
W: 
W: 4. Ó nova alegre e boa!
W: No céu azul ressoa
W: Que Cristo nos perdoa.
W: Aceitai-o, ó povos; 
W: dai-Lhe o coração!
W:                    
W:    (Estribilho)
W:    É Jesus que nasce, 
W:    Autor da salvação!
W:    Cristo amado a todos 
W:    traz a redenção!
W:    O coro angelical, 
W:    num hino triunfal,
W:    Proclama o Cristo, 
W:    com adoração!
%W:    (Estribilho)
%W:    É Jesus que nasce, Autor da salvação!
%W:    Cristo amado a todos traz a redenção!
%W:    O coro angelical, num hino triunfal,
%W:    Proclama o Cristo, com adoração!





